!!!!SEGMENT: pl-kozmzk--mzk-m-159--041_walczynski-franciszek--praeludia-organi-op-5-allegro-moderato.krn
!!!cenid: 18xx:2784
!!!COM: Walczyński, Franciszek
!!!COM-rismID: pe30021989
!!!CDT: ~1852-1937
!!!CNT: Polish
!!!GTL: Praeludia organi op. 5
!!!OTL: 41. Allegro moderato
!!!PDT: 1894
!!!AGN: Secular; Prelude
!!!SMS-siglum: PL-KOZmzk
!!!SMS-shelfmark: mzk/m/159
!!!SMS-shelfwork: 041 G
!!!SMS-variant:
!!!SMS-altvar:
!!!NIFC-rismSourceID: 1001118844
!!!NIFC-islandoraID: pl-kozmzk:2265
!!!URL-pdf-islandora: https://repozytorium.nifc.pl/islandora/object/pl-kozmzk%3A2265/datastream/PDF/view
!!!URL-scan: https://polish.musicsources.pl/pl/lokalizacje/galeria/druki-muzyczne/7406 @EN{Scan on Polish Music Sources Website} @PL{Skany w portalu Dziedzictwo Muzyki Polskiej w otwartym dostępie}
!!!ONB-nifc: UWAGA: numeracja plików zgodna z numeracją źrodłową
!!!OMD: 41. Allegro moderato.
!!!AIN: 1 empty 1 organ
!!!key:
**kern	**kern	**dynam
*part2	*part1	*part1
*staff2	*staff1	*
*Iorgan	*Iempty	*
*I"[Organo]	*	*
*clefF4	*clefG2	*
*k[b-]	*k[b-]	*
*d:	*d:	*
*M4/4	*M4/4	*
*met(c)	*met(c)	*
=1	=1	=1
*^	*^	*
1r	(8A\L	1r	1r	p
.	8G#X\	.	.	.
.	8A\	.	.	.
.	8E\J	.	.	.
.	8Gn\L	.	.	.
.	8F\	.	.	.
.	8E\	.	.	.
.	8D\J)	.	.	.
=2	=2	=2	=2	=2
(8a/L	(2C#X\	1r	1r	.
8g#X/	.	.	.	.
8a/	.	.	.	.
8e/J	.	.	.	.
8gn/L	4D\	.	.	.
8f/	.	.	.	.
8e/	8E\L	.	.	.
8d/J)	8F\J)	.	.	.
=3	=3	=3	=3	=3
(1d/	(2F#X\	1r	(8dd\L	fp
.	.	.	8cc#X\	.
.	.	.	8dd\	.
.	.	.	8a\J	.
.	4G\	.	8ccn\L	.
.	.	.	8b-\	.
.	8A\L	.	8a\	.
.	8B-\J)	.	8g\J)	.
=4	=4	=4	=4	=4
8c/L)	(8A\L	1r	[2f#X\	.
8e-X/	8c\	.	.	.
8d/	8B-\	.	.	.
8c/J	8A\J	.	.	.
2d/	4B-\	.	8f#\L]	.
.	.	.	8g\	.
.	8F#X\L	.	8a\	.
.	8G\J)	.	8b-\J	.
=5	=5	=5	=5	=5
4c#X/	(4A\	(8aa/L	2.a\	f
.	.	8gg#X/	.	.
[4e^/	4C#X\	8aa/	.	.
.	.	8ee/J	.	.
8e/L]	4D\	8ggn/L	.	.
8d/	.	8ff/	.	.
8c#X/	8E\L	8ee/	4a\	.
8d/J	8F\J)	8dd/J)	.	.
!!LO:LB:g=original
=6	=6	=6	=6	=6
(8d/L	(4G\	(8ff/L	4b-\	.
8g/	.	8ee/	.	.
8f/	8A\L	8dd/	8a\L	.
8e/J	8AA\J	8cc#X/J	[8g\J	.
2d/)	2BB-\)	[2dd/)	8g\L]	.
.	.	.	8f\	.
.	.	.	8e\	.
.	.	.	8f\J	.
=7	=7	=7	=7	=7
(8B-/L	(2GG\	(2dd/]	([2e\	p
8A/	.	.	.	.
8B-/	.	.	.	.
8G/J	.	.	.	.
8A/L	2AA\	2cc#X/	8e\L]	.
8G/	.	.	8b-\	.
8F/	.	.	8a\	.
8E/J	.	.	8g\J	.
=8	=8	=8	=8	=8
1D/)	4BB-\	4dd/	8f\L	.
.	.	.	8d\	.
.	4AA\	4ccn/	8e\	.
.	.	.	8f#X\J	.
.	4GG\	4.b-^/	8g\L	.
.	.	.	8f#\	.
.	4FF\)	.	8g\	.
.	.	8a/	[8d\J)	.
=9	=9	=9	=9	=9
[2E/	(2EE\	(2g#X/)	8d\L]	.
.	.	.	(8fn\	.
.	.	.	8e\	.
.	.	.	8d\J	.
8E/L]	2AA\	8gn/L	2c#X\)	.
8G/	.	8b-/	.	.
8F/	.	8a/	.	.
8E/J	.	8g/J)	.	.
=10	=10	=10	=10	=10
(4F/	4D\	(8g/	(4d\	.
.	.	4f/	.	.
4G/	4GG\	.	4B-\	.
.	.	4e/	.	.
4F/	2AA\	.	2A\	.
!	!	!LO:TX:a:i:t=rit.	!	!
.	.	4d/	.	.
8E/L	.	.	.	.
[8G/J	.	8c#X/	.	.
=11	=11	=11	=11	=11
8G/L]	1DD\;)	1d/;)	1A\)	.
8G/	.	.	.	pp
8F#X/	.	.	.	.
8E/J	.	.	.	.
2F#/)	.	.	.	.
*v	*v	*	*	*
*	*v	*v	*
==	==	==
*-	*-	*-
!!!system-decoration: {(s1,s2)}
!!!EED: Andrzej Borzym
!!!EEV: 2021-08-08
!!!ENC: Krzysztof Stępień
!!!END: 2021-07-26
!!!YEC: Copyright 2022 Narodowy Instytut Fryderyka Chopina (https://polishscores.org)
!!!YEM: Licence CC BY 4.0 (https://creativecommons.org/licenses/by/4.0)
